<?xml version="1.0" encoding="UTF-8"?>
<map version="1.8" tiledversion="1.11.2" orientation="isometric" renderorder="right-down" compressionlevel="0" width="8" height="18" tilewidth="64" tileheight="32" infinite="0" nextlayerid="17" nextobjectid="67">
 <properties>
  <property name="Background" value="custom"/>
  <property name="Background Animation" value="/server/assets/backgrounds/ACDC.animation"/>
  <property name="Background Texture" value="/server/assets/backgrounds/ACDC.png"/>
  <property name="Background Vel X" type="float" value="0.1"/>
  <property name="Background Vel Y" type="float" value="0.1"/>
  <property name="Name" value="ACDC_Square"/>
  <property name="Song" value="/server/assets/music/network is spreading.ogg"/>
 </properties>
 <tileset firstgid="1" source="../assets/tiles/BN3 square custom.tsx"/>
 <tileset firstgid="246" source="../assets/tiles/BN3ACDCWarp2.tsx"/>
 <tileset firstgid="255" source="../assets/tiles/bn3-bbs.tsx"/>
 <layer id="1" name="Floor" width="8" height="18">
  <data encoding="csv">
0,0,0,0,0,0,0,0,
0,1,6,1,6,1,0,0,
0,6,1,6,1,6,0,0,
0,0,0,19,0,0,0,0,
0,0,0,15,0,0,0,0,
0,8,13,8,13,8,0,0,
0,13,8,13,8,13,0,0,
0,8,13,8,13,8,0,0,
0,13,8,13,8,13,0,0,
0,8,13,8,13,8,0,0,
0,13,8,13,8,13,0,0,
0,8,13,8,13,8,0,0,
0,13,8,13,8,13,0,0,
0,0,0,19,0,0,0,0,
0,0,0,15,0,0,0,0,
0,0,1,6,1,0,0,0,
0,0,6,1,6,0,0,0,
0,0,1,6,1,0,0,0
</data>
 </layer>
 <objectgroup id="5" name="Object Layer">
  <object id="62" type="Custom Warp" gid="247" x="96" y="256" width="64" height="40">
   <properties>
    <property name="Direction" value="Up Right"/>
    <property name="Target Area" value="acdc3"/>
    <property name="Target Object" value="64"/>
   </properties>
  </object>
  <object id="63" type="Board" gid="2147483903" x="-1" y="-65" width="80" height="96">
   <properties>
    <property name="BBS" type="bool" value="true"/>
    <property name="Color" type="color" value="#ff55ffff"/>
    <property name="Name" value="ACDC_SQR1"/>
    <property name="Post Limit" type="int" value="30"/>
   </properties>
  </object>
  <object id="64" type="Board" gid="2147483903" x="63" y="-65" width="80" height="96">
   <properties>
    <property name="BBS" type="bool" value="true"/>
    <property name="Color" type="color" value="#ff55ffff"/>
    <property name="Name" value="ACDC_SQR2"/>
    <property name="Post Limit" type="int" value="30"/>
   </properties>
  </object>
 </objectgroup>
</map>
