<?xml version="1.0" encoding="UTF-8"?>
<map version="1.10" tiledversion="1.11.2" orientation="isometric" renderorder="right-down" compressionlevel="0" width="25" height="24" tilewidth="64" tileheight="32" infinite="0" nextlayerid="17" nextobjectid="65">
 <properties>
  <property name="Background" value="custom"/>
  <property name="Background Animation" value="/server/assets/backgrounds/ACDC.animation"/>
  <property name="Background Texture" value="/server/assets/backgrounds/ACDC.png"/>
  <property name="Background Vel X" type="float" value="0.1"/>
  <property name="Background Vel Y" type="float" value="0.1"/>
  <property name="Name" value="ACDC_2"/>
  <property name="OctoPVP" value="true"/>
  <property name="Song" value="/server/assets/music/network is spreading.ogg"/>
 </properties>
 <tileset firstgid="1" source="../assets/tiles/main-net.tsx"/>
 <tileset firstgid="1521" source="../assets/tiles/BN3ACDCWarp2.tsx"/>
 <layer id="1" name="Floor" width="25" height="24">
  <data encoding="csv">
0,0,0,0,0,0,0,0,0,0,0,0,0,0,0,1204,1204,1204,1204,1204,1204,1204,0,0,0,
0,0,0,0,0,0,0,0,0,0,0,0,0,0,0,1204,1204,1204,1204,1204,1204,1204,0,0,0,
0,0,0,0,0,0,0,0,0,0,0,0,0,0,0,1204,1204,1204,1204,1204,1204,1204,0,0,0,
0,0,0,44,0,0,0,0,0,0,0,0,0,0,0,1204,1204,1204,1204,1204,1204,1204,0,0,0,
0,0,0,161,0,0,0,0,0,0,0,0,0,0,0,0,0,0,4,0,0,0,0,0,0,
0,0,0,201,0,0,0,0,0,0,0,0,0,0,0,0,0,0,161,0,0,0,0,0,0,
0,0,0,241,0,0,0,0,0,0,0,0,0,0,0,0,0,0,241,0,0,0,0,0,0,
0,0,0,4,163,203,203,203,243,4,3,43,43,43,43,83,4,2,4,3,43,83,364,0,0,
0,0,0,161,0,0,0,0,0,1,0,0,0,0,0,0,0,0,161,0,0,0,0,0,0,
0,0,0,201,0,1243,1243,1243,0,81,0,0,0,0,0,0,0,0,201,0,0,0,0,0,0,
0,0,0,201,0,1243,1243,1243,0,4,163,203,203,203,203,243,4,0,201,0,0,0,0,0,0,
0,0,0,201,0,1243,1243,1243,0,1,0,0,0,0,0,0,162,0,201,0,0,0,0,0,0,
0,0,0,201,0,1243,1243,1243,0,41,0,0,0,0,0,0,4,0,201,0,0,0,0,0,0,
0,0,0,201,0,0,4,0,0,41,0,1203,1203,1203,0,0,0,0,241,0,0,0,0,0,0,
0,0,0,241,0,0,162,0,0,41,0,1203,1203,1203,4,163,203,243,4,0,0,0,0,0,0,
4,163,243,4,163,243,84,0,0,41,0,1203,1203,1203,0,0,0,0,161,0,0,0,0,0,0,
0,0,0,161,0,0,0,0,0,81,0,0,0,0,0,0,0,0,201,0,0,0,0,0,0,
0,0,0,201,0,0,0,0,0,4,163,203,203,203,203,243,4,0,241,0,0,0,0,0,0,
0,0,0,241,0,0,0,0,0,2,0,0,0,0,0,0,0,0,84,0,0,0,0,0,0,
0,0,0,44,163,203,203,203,243,4,0,0,0,0,0,0,0,0,0,0,0,0,0,0,0,
0,0,0,0,0,0,0,0,0,1,0,0,0,0,0,0,0,0,0,0,0,0,0,0,0,
0,0,0,0,0,0,0,0,0,81,0,0,0,0,0,0,0,0,0,0,0,0,0,0,0,
0,0,0,0,0,0,0,0,0,363,0,0,0,0,0,0,0,0,0,0,0,0,0,0,0,
0,0,0,0,0,0,0,0,0,0,0,0,0,0,0,0,0,0,0,0,0,0,0,0,0
</data>
 </layer>
 <objectgroup id="5" name="Object Layer">
  <object id="62" type="Radius Warp" x="304" y="720">
   <properties>
    <property name="Activation Radius" type="float" value="0.6"/>
    <property name="Arrival Animation" value="arrow_down_left_in"/>
    <property name="Direction" propertytype="Direction" value="Down Left"/>
    <property name="Leave Animation" value="arrow_down_left_out"/>
    <property name="Target Area" value="default"/>
    <property name="Target Object" value="68"/>
   </properties>
   <point/>
  </object>
  <object id="63" type="Radius Warp" x="720" y="240">
   <properties>
    <property name="Activation Radius" type="float" value="0.6"/>
    <property name="Arrival Animation" value="arrow_down_right_in"/>
    <property name="Leave Animation" value="arrow_down_right_out"/>
    <property name="Target Area" value="acdc3"/>
    <property name="Target Object" value="63"/>
   </properties>
   <point/>
  </object>
  <object id="64" gid="1521" x="192" y="320" width="64" height="40"/>
 </objectgroup>
</map>
