<?xml version="1.0" encoding="UTF-8"?>
<map version="1.8" tiledversion="1.11.2" orientation="isometric" renderorder="right-down" compressionlevel="0" width="17" height="15" tilewidth="64" tileheight="32" infinite="0" nextlayerid="32" nextobjectid="64">
 <properties>
  <property name="Background" value="custom"/>
  <property name="Background Animation" value="/server/assets/backgrounds/beachside.animation"/>
  <property name="Background Texture" value="/server/assets/backgrounds/beachside.png"/>
  <property name="Background Vel X" type="float" value="0.1"/>
  <property name="Background Vel Y" type="float" value="0.1"/>
  <property name="Name" value="Beach_Sqr"/>
  <property name="Song" value="/server/assets/music/network is spreading.ogg"/>
 </properties>
 <tileset firstgid="1" source="../assets/tiles/warp.tsx"/>
 <tileset firstgid="7" source="../assets/tiles/home_warp.tsx"/>
 <tileset firstgid="12" source="../assets/tiles/coffee.tsx"/>
 <tileset firstgid="16" source="../assets/tiles/gate.tsx"/>
 <tileset firstgid="26" source="../assets/tiles/BN3-revamped.tsx"/>
 <tileset firstgid="1546" source="../assets/tiles/BN3 square custom.tsx"/>
 <tileset firstgid="1791" source="../assets/tiles/BN3ACDCWarp2.tsx"/>
 <tileset firstgid="1800" source="../assets/tiles/bn3-bbs.tsx"/>
 <layer id="1" name="Floor" width="17" height="15">
  <properties>
   <property name="Background" value="custom"/>
   <property name="Background Animation" value="/server/assets/backgrounds/ACDC.animation"/>
   <property name="Background Texture" value="/server/assets/backgrounds/ACDC.png"/>
   <property name="Background Vel X" type="float" value="0.1"/>
   <property name="Background Vel Y" type="float" value="0.1"/>
   <property name="Name" value="ACDC_3"/>
   <property name="Song" value="/server/assets/music/Mega Man Battle Network 3 OST - T21 Network Is Spreading (Internet Theme).ogg"/>
  </properties>
  <data encoding="csv">
0,0,0,0,0,0,0,0,0,0,0,0,0,0,0,0,0,
0,0,0,0,0,0,0,0,0,0,1707,1708,1707,0,0,0,0,
0,0,0,0,0,0,0,0,1715,1716,1708,1707,1708,1719,1716,0,0,
0,0,0,0,0,0,0,0,1714,0,1707,1708,1707,0,0,0,0,
0,0,0,0,0,0,0,0,1714,0,0,0,0,0,0,0,0,
0,0,0,0,0,0,1700,1701,1700,1701,1700,0,0,0,0,0,0,
0,0,0,0,0,0,1701,1700,1701,1700,1701,1719,0,0,0,0,0,
0,0,0,0,0,2147485341,1700,1701,1700,1701,1700,0,0,0,0,0,0,
0,0,0,0,0,0,1701,1700,1701,1700,1701,1719,1716,0,0,0,0,
0,0,0,0,0,0,1700,1701,1700,1701,1700,0,0,0,0,0,0,
0,0,0,0,0,0,1701,1700,1701,1700,1701,1719,0,0,0,0,0,
0,0,0,0,0,0,0,0,1718,0,0,0,0,0,0,0,0,
0,0,0,0,0,0,0,0,1714,0,0,0,1707,1708,1707,1719,1716,
0,0,0,0,0,0,0,0,1714,1716,1716,1716,1708,1707,1708,0,0,
0,0,0,0,0,0,0,0,0,0,0,0,1707,1708,1707,1719,0
</data>
 </layer>
 <objectgroup id="5" name="Object Layer">
  <object id="62" type="Custom Warp" gid="1792" x="256" y="240" width="64" height="40">
   <properties>
    <property name="Direction" value="Up Left"/>
    <property name="Target Area" value="beachside1"/>
    <property name="Target Object" value="86"/>
   </properties>
  </object>
 </objectgroup>
 <layer id="28" name="Tile Layer 2" width="17" height="15" offsetx="0" offsety="-16">
  <data encoding="csv">
0,0,0,0,0,0,0,0,0,0,0,0,0,0,0,0,0,
0,0,0,0,0,0,0,0,0,0,0,0,0,0,0,0,0,
0,0,0,0,0,0,0,0,0,0,0,0,0,0,0,0,0,
0,0,0,0,0,0,0,0,0,0,0,0,0,0,0,0,0,
0,0,0,0,0,0,0,0,0,0,0,0,0,0,0,0,0,
0,0,0,0,0,0,0,0,0,0,0,0,0,0,0,0,0,
0,0,0,0,0,0,0,0,0,0,0,0,0,0,0,0,0,
0,0,0,0,2147485341,0,0,0,0,0,0,0,0,0,0,0,0,
0,0,0,0,0,0,0,0,0,0,0,0,0,0,0,0,0,
0,0,0,0,0,0,0,0,0,0,0,0,0,0,0,0,0,
0,0,0,0,0,0,0,0,0,0,0,0,0,0,0,0,0,
0,0,0,0,0,0,0,0,0,0,0,0,0,0,0,0,0,
0,0,0,0,0,0,0,0,0,0,0,0,0,0,0,0,0,
0,0,0,0,0,0,0,0,0,0,0,0,0,0,0,0,0,
0,0,0,0,0,0,0,0,0,0,0,0,0,0,0,0,0
</data>
 </layer>
 <objectgroup id="29" name="Object Layer 2" offsetx="0" offsety="-16"/>
 <layer id="30" name="Tile Layer 3" width="17" height="15" offsetx="0" offsety="-32">
  <data encoding="csv">
0,0,0,0,0,0,0,0,0,0,0,0,0,0,0,0,0,
0,0,0,0,0,0,0,0,0,0,0,0,0,0,0,0,0,
0,0,0,0,0,0,0,0,0,0,0,0,0,0,0,0,0,
0,0,0,0,0,0,0,0,0,0,0,0,0,0,0,0,0,
0,1679,1680,1679,0,0,0,0,0,0,0,0,0,0,0,0,0,
0,1680,1679,1680,1691,0,0,0,0,0,0,0,0,0,0,0,0,
0,1679,1680,1679,0,0,0,0,0,0,0,0,0,0,0,0,0,
0,1680,1679,1680,2147485342,0,0,0,0,0,0,0,0,0,0,0,0,
0,1679,1680,1679,0,0,0,0,0,0,0,0,0,0,0,0,0,
0,1680,1679,1680,0,0,0,0,0,0,0,0,0,0,0,0,0,
0,1679,1680,1679,1691,1688,0,0,0,0,0,0,0,0,0,0,0,
0,0,0,0,0,0,0,0,0,0,0,0,0,0,0,0,0,
0,0,0,0,0,0,0,0,0,0,0,0,0,0,0,0,0,
0,0,0,0,0,0,0,0,0,0,0,0,0,0,0,0,0,
0,0,0,0,0,0,0,0,0,0,0,0,0,0,0,0,0
</data>
 </layer>
 <objectgroup id="31" name="Object Layer 3" offsetx="0" offsety="-32">
  <object id="63" type="Board" gid="1800" x="-65" y="159" width="80" height="96">
   <properties>
    <property name="BBS" type="bool" value="true"/>
    <property name="Color" type="color" value="#ffff5500"/>
    <property name="Name" value="Beachside"/>
    <property name="Post Limit" type="int" value="30"/>
   </properties>
  </object>
 </objectgroup>
</map>
