<?xml version="1.0" encoding="UTF-8"?>
<map version="1.8" tiledversion="1.11.2" orientation="isometric" renderorder="right-down" width="45" height="43" tilewidth="64" tileheight="32" infinite="0" nextlayerid="5" nextobjectid="7">
 <properties>
  <property name="Background" value="custom"/>
  <property name="Background Animation" value="/server/assets/backgrounds/secret-net.animation"/>
  <property name="Background Texture" value="/server/assets/backgrounds/secret-net.png"/>
  <property name="Background Vel X" type="float" value="0"/>
  <property name="Background Vel Y" type="float" value="0"/>
  <property name="Name" value="Secret_1"/>
  <property name="Song" value="/server/assets/music/shine in the dark.ogg"/>
 </properties>
 <tileset firstgid="1" source="../assets/tiles/warp.tsx"/>
 <tileset firstgid="7" source="../assets/tiles/Secret_Area_Prettified_Main.tsx"/>
 <tileset firstgid="25" source="../assets/tiles/Secret_Area_Prettified_Walkways.tsx"/>
 <tileset firstgid="43" source="../assets/tiles/Secret_Area_Warp.tsx"/>
 <tileset firstgid="48" source="../assets/tiles/SecretArrows.tsx"/>
 <tileset firstgid="52" source="../assets/tiles/WaterTilesV2.tsx"/>
 <tileset firstgid="88" source="../assets/tiles/home_warp.tsx"/>
 <tileset firstgid="93" source="../assets/tiles/BN3 remake Secret.tsx"/>
 <tileset firstgid="233" source="../assets/tiles/water-fix-arrows.tsx"/>
 <layer id="1" name="Tile Layer 1" width="45" height="43">
  <data encoding="csv">
53,52,53,52,53,52,53,52,53,52,53,52,53,52,53,52,53,52,53,52,53,52,53,52,53,52,53,52,53,52,53,52,53,52,53,52,53,52,53,52,53,52,53,52,53,
52,53,52,53,52,53,52,53,52,53,52,53,52,53,52,53,52,53,52,53,52,53,52,53,52,53,52,53,52,53,52,53,52,53,52,53,52,53,52,53,52,53,52,53,52,
53,52,53,52,53,52,53,52,53,52,53,52,53,52,53,52,53,52,53,52,53,52,53,52,53,52,53,52,53,52,53,52,53,52,53,52,53,52,53,52,53,52,53,52,53,
52,53,52,53,52,53,52,53,52,53,52,53,52,53,52,53,52,53,52,53,52,53,52,53,52,53,52,53,52,53,52,53,52,53,52,53,52,53,52,53,52,53,52,53,52,
53,52,53,52,53,52,53,52,53,52,53,52,53,52,53,52,53,52,53,52,53,52,53,52,53,52,53,52,53,52,53,52,53,52,53,52,53,52,53,52,53,52,53,52,53,
52,53,52,53,52,53,52,53,52,53,52,53,52,53,52,53,52,53,52,53,52,53,52,53,52,53,52,53,52,53,52,53,52,53,52,53,52,53,52,53,52,53,52,53,52,
53,52,53,52,53,52,53,52,53,52,53,52,53,52,53,52,53,52,53,52,53,52,53,52,53,52,53,52,53,52,53,52,53,52,53,52,53,52,53,52,53,52,53,52,53,
52,53,52,53,52,53,52,53,52,53,52,53,52,53,52,53,52,53,129,138,138,138,138,138,138,130,70,53,52,53,52,53,52,53,52,53,52,53,52,53,52,53,52,53,52,
53,52,53,52,53,52,53,52,53,52,53,52,53,52,53,52,53,52,142,61,80,142,80,79,80,142,71,143,71,52,53,52,53,52,53,52,53,52,53,52,53,52,53,52,53,
52,53,52,53,52,53,52,53,52,53,52,53,52,53,52,53,52,53,142,71,153,154,154,155,70,142,70,142,70,53,52,53,52,53,52,53,52,53,52,53,52,53,52,53,52,
53,52,53,52,53,52,53,52,53,52,53,52,53,52,53,52,53,52,142,70,157,158,158,159,71,142,71,142,71,52,53,52,53,52,53,52,53,52,53,52,53,52,53,52,53,
52,53,52,53,52,53,52,53,52,53,52,53,52,53,129,138,138,138,134,71,161,162,162,163,70,142,70,142,70,53,52,53,52,53,52,53,52,53,52,53,52,53,52,53,52,
53,52,53,52,53,52,53,52,53,52,53,52,53,52,142,79,80,79,80,52,80,79,80,79,53,142,71,142,71,52,53,52,53,52,53,52,53,52,53,52,53,52,53,52,53,
52,53,52,53,52,53,52,53,52,53,52,53,52,53,142,71,129,138,138,138,138,138,138,130,70,133,138,131,138,138,138,138,130,71,52,53,52,53,52,53,52,53,52,53,52,
53,52,53,52,53,52,53,52,53,52,53,52,53,52,142,70,142,61,80,79,80,79,80,142,71,79,80,79,80,79,80,79,142,70,53,52,53,52,53,52,53,52,53,52,53,
52,53,52,53,52,53,52,53,52,53,153,154,155,71,142,71,142,71,117,118,118,118,118,118,118,118,118,118,118,118,119,71,142,71,52,53,52,53,52,53,52,53,52,53,52,
53,52,53,52,53,52,53,52,53,140,157,158,159,138,134,70,142,70,121,122,122,122,122,122,122,122,122,122,122,122,123,70,142,70,53,52,53,52,53,52,53,52,53,52,53,
52,53,52,53,52,53,52,53,52,234,161,162,163,62,79,53,142,71,121,122,122,122,122,122,122,122,122,122,122,122,123,71,142,71,52,53,52,53,52,53,52,53,52,53,52,
53,52,53,52,53,52,53,52,53,52,80,79,80,52,129,138,131,70,121,122,122,122,122,122,122,122,122,122,122,122,123,70,142,138,130,70,53,52,53,52,53,52,53,52,53,
52,53,52,53,52,53,52,53,52,53,137,138,138,138,131,62,142,71,121,122,122,122,122,122,122,122,122,122,122,122,123,71,142,71,142,71,52,53,52,53,52,53,52,53,52,
53,52,53,52,53,52,53,52,53,52,80,79,80,79,142,70,142,138,121,122,122,122,122,122,122,122,122,122,122,122,123,70,142,70,142,70,53,52,53,52,53,52,53,52,53,
52,53,52,53,52,53,52,53,52,53,52,153,155,71,142,71,142,71,121,122,122,122,122,122,122,122,122,122,122,122,123,71,142,71,142,71,52,53,52,53,52,53,52,53,52,
53,52,53,52,53,52,53,52,53,52,53,157,159,138,131,70,142,70,121,122,122,122,122,122,122,122,122,122,122,122,123,138,134,70,142,70,53,52,53,52,53,52,53,52,53,
52,53,52,53,52,53,52,53,52,53,52,161,163,62,142,71,142,71,121,122,122,122,122,122,122,122,122,122,122,122,123,62,79,53,142,71,52,53,52,53,52,53,52,53,52,
53,52,53,52,53,52,53,52,53,52,53,52,80,52,142,70,142,70,121,122,122,122,122,122,122,122,122,122,122,122,123,70,143,70,142,70,53,52,53,52,53,52,53,52,53,
52,53,52,53,52,53,52,53,52,53,52,53,52,53,142,71,142,71,121,122,122,122,122,122,122,122,122,122,122,122,123,71,142,71,142,71,52,53,52,53,52,53,52,53,52,
53,52,53,52,53,52,53,52,53,52,53,52,53,52,142,70,142,70,121,122,122,122,122,122,122,122,122,122,122,122,123,70,142,70,133,70,53,52,53,52,53,52,53,52,53,
52,53,52,53,52,53,52,53,52,53,52,53,52,53,142,71,142,71,125,126,126,126,126,126,126,126,126,126,126,126,127,71,142,71,79,53,52,53,52,53,52,53,52,53,52,
53,52,53,52,53,52,53,52,53,52,53,52,53,52,80,52,142,70,80,79,80,79,80,79,80,79,142,61,80,79,80,52,142,70,53,52,53,52,53,52,53,52,53,52,53,
52,53,52,53,52,53,52,53,52,53,52,53,52,53,52,53,133,138,138,138,139,71,153,154,156,71,142,71,129,138,138,138,134,71,52,53,52,53,52,53,52,53,52,53,52,
53,52,53,52,53,52,53,52,53,52,53,52,53,52,53,52,80,79,80,79,80,52,157,158,159,70,142,70,142,61,80,79,80,52,53,52,53,52,53,52,53,52,53,52,53,
52,53,52,53,52,53,52,53,52,53,52,53,52,53,52,53,52,53,137,138,130,71,161,162,163,71,142,71,142,138,138,138,150,71,52,53,52,53,52,53,52,53,52,53,52,
53,52,53,52,53,52,53,52,53,52,53,52,53,52,53,52,53,52,80,79,142,70,80,142,80,52,142,70,142,61,80,79,80,52,53,52,53,52,53,52,53,52,53,52,53,
52,53,52,53,52,53,52,53,52,53,52,53,52,53,52,53,52,53,52,53,133,138,138,131,138,138,131,138,134,71,52,53,52,53,52,53,52,53,52,53,52,53,52,53,52,
53,52,53,52,53,52,53,52,53,52,53,52,53,52,53,52,53,52,53,52,80,79,80,79,80,79,80,79,80,52,53,52,53,52,53,52,53,52,53,52,53,52,53,52,53,
52,53,52,53,52,53,52,53,52,53,52,53,52,53,52,53,52,53,52,53,52,53,52,53,52,53,52,53,52,53,52,53,52,53,52,53,52,53,52,53,52,53,52,53,52,
53,52,53,52,53,52,53,52,53,52,53,52,53,52,53,52,53,52,53,52,53,52,53,52,53,52,53,52,53,52,53,52,53,52,53,52,53,52,53,52,53,52,53,52,53,
52,53,52,53,52,53,52,53,52,53,52,53,52,53,52,53,52,53,52,53,52,53,52,53,52,53,52,53,52,53,52,53,52,53,52,53,52,53,52,53,52,53,52,53,52,
53,52,53,52,53,52,53,52,53,52,53,52,53,52,53,52,53,52,53,52,53,52,53,52,53,52,53,52,53,52,53,52,53,52,53,52,53,52,53,52,53,52,53,52,53,
52,53,52,53,52,53,52,53,52,53,52,53,52,53,52,53,52,53,52,53,52,53,52,53,52,53,52,53,52,53,52,53,52,53,52,53,52,53,52,53,52,53,52,53,52,
53,52,53,52,53,52,53,52,53,52,53,52,53,52,53,52,53,52,53,52,53,52,53,52,53,52,53,52,53,52,53,52,53,52,53,52,53,52,53,52,53,52,53,52,53,
52,53,52,53,52,53,52,53,52,53,52,53,52,53,52,53,52,53,52,53,52,53,52,53,52,53,52,53,52,53,52,53,52,53,52,53,52,53,52,53,52,53,52,53,52,
53,52,53,52,53,52,53,52,53,52,53,52,53,52,53,52,53,52,53,52,53,52,53,52,53,52,53,52,53,52,53,52,53,52,53,52,53,52,53,52,53,52,53,52,53
</data>
 </layer>
 <objectgroup id="4" name="Object Layer 2">
  <object id="2" name="Secret1ToUnderSquare" type="Custom Warp" gid="43" x="720" y="656" width="80" height="43">
   <properties>
    <property name="Direction" value="Up Right"/>
    <property name="Target Area" value="undernetsqr"/>
    <property name="Target Object" value="90"/>
   </properties>
  </object>
  <object id="3" name="Secret1ToSecret2" type="Radius Warp" x="288" y="528">
   <properties>
    <property name="Activation Radius" type="float" value="0.6"/>
    <property name="Arrival Animation" value="arrow_down_right_in"/>
    <property name="Leave Animation" value="arrow_down_right_out"/>
    <property name="Target Area" value="SecretArea2"/>
    <property name="Target Object" value="1"/>
   </properties>
   <point/>
  </object>
 </objectgroup>
</map>
