<?xml version="1.0" encoding="UTF-8"?>
<map version="1.8" tiledversion="1.11.2" orientation="isometric" renderorder="right-down" width="40" height="40" tilewidth="64" tileheight="32" infinite="0" nextlayerid="9" nextobjectid="4">
 <properties>
  <property name="Background" value="custom"/>
  <property name="Background Animation" value="/server/assets/backgrounds/secret-net.animation"/>
  <property name="Background Texture" value="/server/assets/backgrounds/secret-net.png"/>
  <property name="Background Vel X" type="float" value="0"/>
  <property name="Background Vel Y" type="float" value="0"/>
  <property name="Name" value="Secret_2"/>
  <property name="Song" value="/server/assets/music/shine in the dark.ogg"/>
 </properties>
 <tileset firstgid="1" source="../assets/tiles/Secret_Area_Prettified_Walkways.tsx"/>
 <tileset firstgid="19" source="../assets/tiles/Secret_Area_Prettified_Main.tsx"/>
 <tileset firstgid="37" source="../assets/tiles/Secret_Area_White_Walkways.tsx"/>
 <tileset firstgid="55" source="../assets/tiles/Secret_Area_White_Main.tsx"/>
 <tileset firstgid="73" source="../assets/tiles/SecretArrows.tsx"/>
 <tileset firstgid="77" source="../assets/tiles/WaterTilesV2.tsx"/>
 <tileset firstgid="113" source="../assets/tiles/BN3 remake Secret.tsx"/>
 <layer id="1" name="Tile Layer 1" width="40" height="40">
  <data encoding="csv">
78,77,78,77,78,77,78,77,78,77,78,77,78,77,78,77,78,77,78,77,78,77,78,77,78,77,78,77,78,77,78,77,78,77,78,77,78,77,78,77,
77,78,77,78,77,78,77,78,77,78,77,78,77,78,77,78,77,78,77,78,77,78,77,78,77,78,77,78,77,78,77,78,77,78,77,78,77,78,77,78,
78,77,78,77,78,77,78,77,78,77,78,77,78,77,78,77,78,77,78,77,78,77,78,77,78,77,78,77,78,77,78,77,78,77,78,77,78,77,78,77,
77,78,77,78,77,78,77,78,77,78,77,78,77,78,77,78,77,78,77,78,77,78,77,78,77,78,77,78,77,78,77,78,77,78,77,78,77,78,77,78,
78,77,78,77,78,77,78,77,78,77,78,77,78,77,78,77,78,77,78,77,78,77,78,77,78,77,78,77,78,77,78,77,78,77,78,77,78,77,78,77,
77,78,77,78,77,78,77,78,77,78,77,78,77,78,77,78,77,78,77,78,77,78,77,78,77,78,77,78,77,78,77,78,77,78,77,78,77,78,77,78,
78,77,78,77,78,77,78,77,78,77,78,77,78,77,78,77,78,77,78,77,78,77,78,77,78,77,78,77,78,77,78,77,78,77,78,77,78,77,78,77,
77,78,77,78,77,78,77,78,77,78,77,78,77,78,77,78,77,78,77,78,77,78,77,78,77,78,77,78,77,78,77,78,77,78,77,78,77,78,77,78,
78,77,78,77,78,77,78,77,78,77,78,77,78,77,78,77,78,77,78,77,78,77,78,77,78,77,78,77,78,77,78,77,78,77,78,77,78,77,78,77,
77,78,77,78,77,78,77,78,77,78,77,78,77,78,77,78,77,78,77,78,77,78,77,78,77,78,77,78,77,78,77,78,77,78,77,78,77,78,77,78,
78,77,78,77,78,77,78,77,78,77,78,77,78,77,78,77,78,77,78,77,78,77,78,77,78,77,78,77,78,77,78,77,78,77,78,77,78,77,78,77,
77,78,77,78,77,78,77,78,77,78,77,78,77,78,77,78,77,78,77,78,77,78,77,78,77,78,77,78,77,78,77,78,77,78,77,78,77,78,77,78,
78,77,78,77,78,77,78,77,78,77,78,77,78,77,78,77,78,77,78,77,78,77,78,77,78,77,78,77,78,77,78,77,78,77,78,77,78,77,78,77,
77,78,77,78,77,78,77,78,77,78,77,78,77,78,77,78,77,78,77,78,77,78,77,78,77,78,77,78,77,78,77,78,77,78,77,78,77,78,77,78,
78,77,78,77,78,77,78,77,78,77,78,77,78,77,78,77,78,77,78,77,78,77,78,77,78,77,78,77,78,77,78,77,78,77,78,77,78,77,78,77,
77,78,77,78,77,78,77,78,77,78,77,78,77,78,77,78,77,78,77,78,77,78,77,78,77,78,77,78,77,78,77,78,77,78,77,78,77,78,77,78,
78,77,78,77,78,77,78,77,78,77,78,77,78,77,78,77,78,77,78,77,78,77,78,77,78,77,78,77,78,77,78,77,78,77,78,77,78,77,78,77,
77,78,77,78,77,78,77,78,77,78,77,78,77,78,77,78,77,78,77,78,77,78,77,78,77,78,77,78,77,78,77,78,77,78,77,78,77,78,77,78,
78,77,78,77,78,77,78,77,78,77,78,77,78,77,78,77,78,77,78,77,78,77,78,77,78,77,78,77,78,77,78,77,78,77,78,77,78,77,78,77,
77,78,77,78,77,78,77,78,77,78,77,78,77,78,77,78,77,78,77,78,77,78,77,78,77,78,77,78,77,78,77,78,77,78,77,78,77,78,77,78,
78,77,78,77,78,77,78,77,78,77,78,77,78,77,78,77,78,77,78,77,78,77,78,77,78,77,78,77,78,77,78,77,78,77,78,77,78,77,78,77,
77,78,77,78,77,78,77,78,77,78,77,78,77,78,77,78,77,78,77,78,77,78,77,78,77,78,77,78,77,78,77,78,77,78,77,78,77,78,77,78,
78,77,78,77,78,77,78,77,78,77,78,77,78,77,78,77,78,77,78,77,78,77,78,77,78,77,78,77,78,77,78,77,78,77,78,77,78,77,78,77,
77,78,77,78,77,78,77,78,77,78,77,78,77,78,77,78,77,78,77,78,77,78,77,78,77,78,77,78,77,78,77,78,77,78,77,78,77,78,77,78,
78,77,78,77,78,77,78,77,78,77,78,77,78,77,78,77,78,77,78,77,78,77,78,77,78,77,78,77,78,77,78,77,78,77,78,77,78,77,78,77,
77,78,77,78,77,78,77,78,77,78,77,78,77,78,77,78,77,78,77,78,77,78,77,78,77,78,77,78,77,78,77,78,77,78,77,78,77,78,77,78,
78,77,78,77,78,77,78,77,78,77,78,77,78,77,78,77,78,77,78,77,78,77,78,77,78,77,78,77,78,77,78,77,78,77,78,77,78,77,78,77,
77,78,77,78,77,78,77,78,77,78,77,78,77,78,77,78,77,78,77,78,77,78,77,78,77,78,77,78,77,78,77,78,77,78,77,78,77,78,77,78,
78,77,78,77,78,77,78,77,78,77,78,77,78,77,78,77,78,77,78,77,78,77,78,77,78,77,78,77,78,77,78,77,78,77,78,77,78,77,78,77,
77,78,77,78,77,78,77,78,77,78,77,78,77,78,77,78,77,78,77,78,77,78,77,78,77,78,77,78,77,78,77,78,77,78,77,78,77,78,77,78,
78,77,78,77,78,77,78,77,78,77,78,77,78,77,78,77,78,77,78,77,78,77,78,77,78,77,78,77,78,77,78,77,78,77,78,77,78,77,78,77,
77,78,77,78,77,78,77,78,77,78,77,78,77,78,77,78,77,78,77,78,77,78,77,78,77,78,77,78,77,78,77,78,77,78,77,78,77,78,77,78,
78,77,78,77,78,77,78,77,78,77,78,77,78,77,78,77,78,77,78,77,78,77,78,77,78,77,78,77,78,77,78,77,78,77,78,77,78,77,78,77,
77,78,77,78,77,78,77,78,77,78,77,78,77,78,77,78,77,78,77,78,77,78,77,78,77,78,77,78,77,78,77,78,77,78,77,78,77,78,77,78,
78,77,78,77,78,77,78,77,78,77,78,77,78,77,78,77,78,77,78,77,78,77,78,77,78,77,78,77,78,77,78,77,78,77,78,77,78,77,78,77,
77,78,77,78,77,78,77,78,77,78,77,78,77,78,77,78,77,78,77,78,77,78,77,78,77,78,77,78,77,78,77,78,77,78,77,78,77,78,77,78,
78,77,78,77,78,77,78,77,78,77,78,77,78,77,78,77,78,77,78,77,78,77,78,77,78,77,78,77,78,77,78,77,78,77,78,77,78,77,78,77,
77,78,77,78,77,78,77,78,77,78,77,78,77,78,77,78,77,78,77,78,77,78,77,78,77,78,77,78,77,78,77,78,77,78,77,78,77,78,77,78,
78,77,78,77,78,77,78,77,78,77,78,77,78,77,78,77,78,77,78,77,78,77,78,77,78,77,78,77,78,77,78,77,78,77,78,77,78,77,78,77,
77,78,77,78,77,78,77,78,77,78,77,78,77,78,77,78,77,78,77,78,77,78,77,78,77,78,77,78,77,78,77,78,77,78,77,78,77,78,77,78
</data>
 </layer>
 <objectgroup id="2" name="Object Layer 1"/>
 <layer id="3" name="Tile Layer 2" width="40" height="40" offsetx="0" offsety="-16">
  <data encoding="csv">
0,0,0,0,0,0,0,0,0,0,0,0,0,0,0,0,0,0,0,0,0,0,0,0,0,0,0,0,0,0,0,0,0,0,0,0,0,0,0,0,
0,0,0,0,0,0,0,0,0,0,0,0,0,0,0,0,0,0,0,0,0,0,0,0,0,0,0,0,0,0,0,0,0,0,0,0,0,0,0,0,
0,0,0,0,0,0,0,0,0,0,0,0,0,0,0,0,0,0,0,0,0,0,0,0,0,0,0,0,0,0,0,0,0,0,0,0,0,0,0,0,
0,0,0,0,0,0,0,0,0,0,0,0,0,0,0,0,0,0,0,0,0,0,0,0,0,0,0,0,0,0,0,0,0,0,0,0,0,0,0,0,
0,0,0,0,0,0,0,0,0,0,0,0,0,0,0,0,0,0,0,0,0,0,0,0,0,0,0,0,0,0,0,0,0,0,0,0,0,0,0,0,
0,0,0,0,0,0,0,0,0,0,0,0,0,0,0,0,0,0,0,0,0,0,0,0,0,0,0,0,0,0,0,0,0,0,0,0,0,0,0,0,
0,0,0,0,0,0,0,0,0,0,0,0,0,0,0,0,0,0,0,0,0,0,0,0,0,0,0,0,0,0,0,0,0,0,0,0,0,0,0,0,
0,0,0,0,0,0,0,0,0,0,0,0,0,0,0,0,0,0,0,0,0,0,0,0,0,0,0,0,0,0,0,0,0,0,0,0,0,0,0,0,
0,0,0,0,0,0,0,0,0,0,0,0,0,0,0,0,0,0,0,0,0,0,0,0,0,0,0,0,0,0,0,0,0,0,0,0,0,0,0,0,
0,0,0,0,0,0,0,0,0,0,0,0,0,0,0,0,0,0,0,0,0,0,0,0,0,0,0,0,0,0,0,0,0,0,0,0,0,0,0,0,
0,0,0,0,0,0,0,0,137,138,139,0,0,0,0,0,0,0,0,0,0,0,0,0,0,0,0,0,0,0,0,0,0,0,0,0,0,0,0,0,
0,0,0,0,0,0,0,0,141,142,143,0,0,0,0,0,0,0,0,0,0,0,0,0,0,0,0,0,0,0,0,0,0,0,0,0,0,0,0,0,
0,0,0,0,0,0,0,0,145,146,147,0,0,0,0,0,0,0,0,0,0,0,0,0,0,0,0,0,0,0,0,0,0,0,0,0,0,0,0,0,
0,0,0,0,0,0,0,0,0,120,0,0,0,0,0,0,0,0,0,0,0,0,0,0,0,0,0,0,0,0,0,0,0,0,0,0,0,0,0,0,
0,0,0,0,0,0,0,0,0,120,0,0,0,0,0,0,0,0,0,0,0,0,0,0,0,0,0,0,0,0,0,0,0,0,0,0,0,0,0,0,
0,0,0,0,0,0,0,0,0,120,0,0,0,0,0,0,0,0,0,0,0,0,0,0,0,0,0,137,138,139,0,0,0,0,0,0,0,0,0,0,
0,0,0,0,0,0,0,0,0,157,158,158,158,158,158,158,158,158,158,158,158,158,158,158,158,158,158,141,142,143,0,0,0,0,0,0,0,0,0,0,
0,0,0,0,0,0,0,0,0,0,0,0,0,0,0,0,0,0,0,0,0,0,120,0,0,0,0,145,146,147,0,0,0,0,0,0,0,0,0,0,
0,0,0,0,0,0,0,0,0,137,138,139,0,0,0,0,0,0,0,0,0,0,120,0,0,0,0,0,0,0,0,0,0,0,0,0,0,0,0,0,
0,0,0,0,0,0,0,0,160,141,142,143,158,158,158,158,158,158,158,158,158,158,158,158,158,158,158,158,159,0,0,0,0,0,0,0,0,0,0,0,
0,0,0,0,0,0,0,0,0,145,146,147,0,0,0,120,0,0,0,0,0,0,0,0,0,0,0,0,0,0,0,0,0,0,0,0,0,0,0,0,
0,0,0,0,0,0,0,0,0,0,0,0,0,0,0,120,0,0,0,0,0,0,0,0,0,0,0,0,0,0,0,0,0,0,0,0,0,0,0,0,
0,0,0,0,0,0,0,0,0,0,0,157,158,158,158,158,158,159,0,0,0,0,157,158,158,158,158,158,159,0,0,0,0,0,0,0,0,0,0,0,
0,0,0,0,0,0,0,0,0,0,0,0,0,0,0,0,0,0,0,0,0,0,120,0,0,0,0,0,0,0,0,0,0,0,0,0,0,0,0,0,
0,0,0,0,0,0,0,0,0,137,138,139,0,0,0,0,0,0,0,0,0,0,120,0,0,0,0,0,137,139,0,0,0,0,0,0,0,0,0,0,
0,0,0,0,0,0,0,0,0,141,142,143,158,158,158,158,158,158,158,158,158,158,158,158,158,158,158,158,141,143,128,0,0,0,0,0,0,0,0,0,
0,0,0,0,0,0,0,0,0,145,146,147,0,0,0,0,0,0,0,0,0,0,0,0,0,0,0,0,145,147,0,0,0,0,0,0,0,0,0,0,
0,0,0,0,0,0,0,0,0,0,0,158,0,0,0,0,0,0,0,0,0,0,0,0,0,0,0,0,0,0,0,0,0,0,0,0,0,0,0,0,
0,0,0,0,0,0,0,0,0,0,0,161,158,158,158,158,158,158,158,158,158,158,158,158,158,158,158,150,0,137,138,139,0,0,0,0,0,0,0,0,
0,0,0,0,0,0,0,0,0,0,0,0,0,0,0,0,0,0,0,0,0,0,162,0,0,0,0,153,158,141,142,143,0,0,0,0,0,0,0,0,
0,0,0,0,0,0,0,0,0,0,0,0,0,0,0,0,0,0,0,0,0,0,162,0,0,0,0,0,0,145,146,147,0,0,0,0,0,0,0,0,
0,0,0,0,0,0,0,0,0,0,0,0,0,0,0,0,0,0,0,0,0,137,138,139,0,0,0,0,0,0,0,0,0,0,0,0,0,0,0,0,
0,0,0,0,0,0,0,0,0,0,0,0,0,0,0,0,0,0,0,0,0,141,142,143,0,0,0,0,0,0,0,0,0,0,0,0,0,0,0,0,
0,0,0,0,0,0,0,0,0,0,0,0,0,0,0,0,0,0,0,0,0,145,146,147,0,0,0,0,0,0,0,0,0,0,0,0,0,0,0,0,
0,0,0,0,0,0,0,0,0,0,0,0,0,0,0,0,0,0,0,0,0,0,0,0,0,0,0,0,0,0,0,0,0,0,0,0,0,0,0,0,
0,0,0,0,0,0,0,0,0,0,0,0,0,0,0,0,0,0,0,0,0,0,0,0,0,0,0,0,0,0,0,0,0,0,0,0,0,0,0,0,
0,0,0,0,0,0,0,0,0,0,0,0,0,0,0,0,0,0,0,0,0,0,0,0,0,0,0,0,0,0,0,0,0,0,0,0,0,0,0,0,
0,0,0,0,0,0,0,0,0,0,0,0,0,0,0,0,0,0,0,0,0,0,0,0,0,0,0,0,0,0,0,0,0,0,0,0,0,0,0,0,
0,0,0,0,0,0,0,0,0,0,0,0,0,0,0,0,0,0,0,0,0,0,0,0,0,0,0,0,0,0,0,0,0,0,0,0,0,0,0,0,
0,0,0,0,0,0,0,0,0,0,0,0,0,0,0,0,0,0,0,0,0,0,0,0,0,0,0,0,0,0,0,0,0,0,0,0,0,0,0,0
</data>
 </layer>
 <objectgroup id="4" name="Object Layer 2" offsetx="0" offsety="-16">
  <object id="1" name="Secret2ToSecret1" type="Radius Warp" x="976" y="816">
   <properties>
    <property name="Activation Radius" type="float" value="0.6"/>
    <property name="Arrival Animation" value="arrow_down_right_in"/>
    <property name="Leave Animation" value="arrow_down_right_out"/>
    <property name="Target Area" value="SecretArea1"/>
    <property name="Target Object" value="3"/>
   </properties>
   <point/>
  </object>
 </objectgroup>
 <layer id="5" name="Tile Layer 3" width="40" height="40" offsetx="0" offsety="-32">
  <data encoding="csv">
0,0,0,0,0,0,0,0,0,0,0,0,0,0,0,0,0,0,0,0,0,0,0,0,0,0,0,0,0,0,0,0,0,0,0,0,0,0,0,0,
0,0,0,0,0,0,0,0,0,0,0,0,0,0,0,0,0,0,0,0,0,0,0,0,0,0,0,0,0,0,0,0,0,0,0,0,0,0,0,0,
0,0,0,0,0,0,0,0,0,0,0,0,0,0,0,0,0,0,0,0,0,0,0,0,0,0,0,0,0,0,0,0,0,0,0,0,0,0,0,0,
0,0,0,0,0,0,0,0,0,0,0,0,0,0,0,0,0,0,0,0,0,0,0,0,0,0,0,0,0,0,0,0,0,0,0,0,0,0,0,0,
0,0,0,0,0,0,0,0,0,0,0,0,0,0,0,0,0,0,0,0,0,0,0,0,0,0,0,0,0,0,0,0,0,0,0,0,0,0,0,0,
0,0,0,0,0,0,0,0,0,0,0,0,0,0,0,0,0,0,0,0,0,0,0,0,0,0,0,0,0,0,0,0,0,0,0,0,0,0,0,0,
0,0,0,0,0,0,0,0,0,0,0,0,0,0,0,0,0,0,0,0,0,0,0,0,0,0,0,0,0,0,0,0,0,0,0,0,0,0,0,0,
0,0,0,0,0,0,0,0,0,0,0,0,0,0,0,0,0,0,0,0,0,0,0,0,0,0,0,0,0,0,0,0,0,0,0,0,0,0,0,0,
0,0,0,0,0,0,0,0,0,0,0,0,0,0,0,0,0,0,0,0,0,0,0,0,0,0,0,0,0,0,0,0,0,0,0,0,0,0,0,0,
0,0,0,0,0,0,0,0,0,0,0,0,0,0,0,0,0,0,0,0,0,0,0,0,0,0,0,0,0,0,0,0,0,0,0,0,0,0,0,0,
0,0,0,0,0,0,0,0,0,0,0,0,0,0,0,0,0,0,0,0,0,0,0,0,0,0,0,0,0,0,0,0,0,0,0,0,0,0,0,0,
0,0,0,0,0,0,0,0,0,0,0,0,0,0,0,0,0,0,0,0,0,0,0,0,0,0,0,0,0,0,0,0,0,0,0,0,0,0,0,0,
0,0,0,0,0,0,0,0,0,0,0,0,0,0,0,0,0,0,0,0,0,0,0,0,0,0,0,0,0,0,0,0,0,0,0,0,0,0,0,0,
0,0,0,0,0,0,0,0,0,0,0,0,0,0,0,0,0,0,0,0,0,0,0,0,0,0,0,0,0,0,0,0,0,0,0,0,0,0,0,0,
0,0,0,0,0,0,0,0,0,0,0,0,0,0,0,0,0,0,0,0,0,0,0,0,0,0,0,0,0,0,0,0,0,0,0,0,0,0,0,0,
0,0,0,0,0,0,0,0,0,0,0,0,0,0,0,0,0,0,0,0,0,0,0,0,0,0,0,0,0,0,0,0,0,0,0,0,0,0,0,0,
0,0,0,0,0,0,0,0,0,0,0,0,0,0,0,0,0,0,0,0,0,0,0,0,0,0,0,0,0,0,0,0,0,0,0,0,0,0,0,0,
0,0,0,0,0,0,0,0,0,0,0,0,0,0,0,0,0,0,0,0,0,0,0,0,0,0,0,0,0,0,0,0,0,0,0,0,0,0,0,0,
0,0,0,0,0,0,0,0,0,0,0,0,0,0,0,0,0,0,0,0,0,0,0,0,0,0,0,0,0,0,0,0,0,0,0,0,0,0,0,0,
0,0,0,0,0,0,0,0,0,0,0,0,0,0,0,0,0,0,0,0,0,0,0,0,0,0,0,0,0,0,0,0,0,0,0,0,0,0,0,0,
0,0,0,0,0,0,0,0,0,0,0,0,0,0,0,0,0,0,0,0,0,0,0,0,0,0,0,0,0,0,0,0,0,0,0,0,0,0,0,0,
0,0,0,0,0,0,0,0,0,0,0,0,0,0,0,0,0,0,0,0,0,0,0,0,0,0,0,0,0,0,0,0,0,0,0,0,0,0,0,0,
0,0,0,0,0,0,0,0,0,0,0,0,0,0,0,0,0,0,0,0,0,0,0,0,0,0,0,0,0,0,0,0,0,0,0,0,0,0,0,0,
0,0,0,0,0,0,0,0,0,0,0,0,0,0,0,0,0,0,0,0,0,0,0,0,0,0,0,0,0,0,0,0,0,0,0,0,0,0,0,0,
0,0,0,0,0,0,0,0,0,0,0,0,0,0,0,0,0,0,0,0,0,0,0,0,0,0,0,0,0,0,0,0,0,0,0,0,0,0,0,0,
0,0,0,0,0,0,0,0,0,0,0,0,0,0,0,0,0,0,0,0,0,0,0,0,0,0,0,0,0,0,0,0,0,0,0,0,0,0,0,0,
0,0,0,0,0,0,0,0,0,0,0,0,0,0,0,0,0,0,0,0,0,0,0,0,0,0,0,0,0,0,0,0,0,0,0,0,0,0,0,0,
0,0,0,0,0,0,0,0,0,0,0,0,0,0,0,0,0,0,0,0,0,0,0,0,0,0,0,0,0,0,0,0,0,0,0,0,0,0,0,0,
0,0,0,0,0,0,0,0,0,0,0,0,0,0,0,0,0,0,0,0,0,0,0,0,0,0,0,0,0,0,0,0,0,0,0,0,0,0,0,0,
0,0,0,0,0,0,0,0,0,0,0,0,0,0,0,0,0,0,0,0,0,0,0,0,0,0,0,0,0,0,0,0,0,0,0,0,0,0,0,0,
0,0,0,0,0,0,0,0,0,0,0,0,0,0,0,0,0,0,0,0,0,0,0,0,0,0,0,0,0,0,0,0,0,0,0,0,0,0,0,0,
0,0,0,0,0,0,0,0,0,0,0,0,0,0,0,0,0,0,0,0,0,0,0,0,0,0,0,0,0,0,0,0,0,0,0,0,0,0,0,0,
0,0,0,0,0,0,0,0,0,0,0,0,0,0,0,0,0,0,0,0,0,0,0,0,0,0,0,0,0,0,0,0,0,0,0,0,0,0,0,0,
0,0,0,0,0,0,0,0,0,0,0,0,0,0,0,0,0,0,0,0,0,0,0,0,0,0,0,0,0,0,0,0,0,0,0,0,0,0,0,0,
0,0,0,0,0,0,0,0,0,0,0,0,0,0,0,0,0,0,0,0,0,0,0,0,0,0,0,0,0,0,0,0,0,0,0,0,0,0,0,0,
0,0,0,0,0,0,0,0,0,0,0,0,0,0,0,0,0,0,0,0,0,0,0,0,0,0,0,0,0,0,0,0,0,0,0,0,0,0,0,0,
0,0,0,0,0,0,0,0,0,0,0,0,0,0,0,0,0,0,0,0,0,0,0,0,0,0,0,0,0,0,0,0,0,0,0,0,0,0,0,0,
0,0,0,0,0,0,0,0,0,0,0,0,0,0,0,0,0,0,0,0,0,0,0,0,0,0,0,0,0,0,0,0,0,0,0,0,0,0,0,0,
0,0,0,0,0,0,0,0,0,0,0,0,0,0,0,0,0,0,0,0,0,0,0,0,0,0,0,0,0,0,0,0,0,0,0,0,0,0,0,0,
0,0,0,0,0,0,0,0,0,0,0,0,0,0,0,0,0,0,0,0,0,0,0,0,0,0,0,0,0,0,0,0,0,0,0,0,0,0,0,0
</data>
 </layer>
 <objectgroup id="6" name="Object Layer 3" offsetx="0" offsety="-32"/>
 <layer id="7" name="Tile Layer 4" width="40" height="40" offsetx="0" offsety="-48">
  <data encoding="csv">
0,0,0,0,0,0,0,0,0,0,0,0,0,0,0,0,0,0,0,0,0,0,0,0,0,0,0,0,0,0,0,0,0,0,0,0,0,0,0,0,
0,0,0,0,0,0,0,0,0,0,0,0,0,0,0,0,0,0,0,0,0,0,0,0,0,0,0,0,0,0,0,0,0,0,0,0,0,0,0,0,
0,0,0,0,0,0,0,0,0,0,0,0,0,0,0,0,0,0,0,0,0,0,0,0,0,0,0,0,0,0,0,0,0,0,0,0,0,0,0,0,
0,0,0,0,0,0,0,0,0,0,0,0,0,0,0,0,0,0,0,0,0,0,0,0,0,0,0,0,0,0,0,0,0,0,0,0,0,0,0,0,
0,0,0,0,0,0,0,0,0,0,0,0,0,0,0,0,0,0,0,0,0,0,0,0,0,0,0,0,0,0,0,0,0,0,0,0,0,0,0,0,
0,0,0,0,0,0,0,0,0,0,0,0,0,0,0,0,0,0,0,0,0,0,0,0,0,0,0,0,0,0,0,0,0,0,0,0,0,0,0,0,
0,0,0,0,0,0,0,0,0,0,0,0,0,0,0,0,0,0,0,0,0,0,0,0,0,0,0,0,0,0,0,0,0,0,0,0,0,0,0,0,
0,0,0,0,0,0,0,0,0,0,0,0,0,0,0,0,0,0,0,0,0,0,0,0,0,0,0,0,0,0,0,0,0,0,0,0,0,0,0,0,
0,0,0,0,0,0,0,0,0,0,0,0,0,0,0,0,0,0,0,0,0,0,0,0,0,0,0,0,0,0,0,0,0,0,0,0,0,0,0,0,
0,0,0,0,0,0,0,0,0,0,0,0,0,0,0,0,0,0,0,0,0,0,0,0,0,0,0,0,0,0,0,0,0,0,0,0,0,0,0,0,
0,0,0,0,0,0,0,0,0,0,0,0,0,0,0,0,0,0,0,0,0,0,0,0,0,0,0,0,0,0,0,0,0,0,0,0,0,0,0,0,
0,0,0,0,0,0,0,0,0,0,0,0,0,209,210,210,210,210,210,210,211,0,0,209,210,210,211,0,0,0,0,0,0,0,0,0,0,0,0,0,
0,0,0,0,0,0,0,0,0,0,0,0,0,213,214,214,214,214,214,214,215,0,0,213,214,214,215,0,0,0,0,0,0,0,0,0,0,0,0,0,
0,0,0,0,0,0,0,0,0,0,0,0,0,217,218,218,218,218,218,218,219,0,0,2147483860,218,218,219,0,0,0,0,0,0,0,0,0,0,0,0,0,
0,0,0,0,0,0,0,0,0,0,0,0,0,0,194,0,0,198,0,0,194,0,0,194,0,0,194,0,0,0,0,0,0,0,0,0,0,0,0,0,
0,0,0,0,0,0,0,0,0,0,0,0,0,0,194,0,0,198,0,0,194,0,0,194,0,0,198,0,0,0,0,0,0,0,0,0,0,0,0,0,
0,0,0,0,0,0,0,0,0,0,0,0,0,0,194,0,0,198,0,0,194,0,0,194,0,0,198,0,0,0,0,0,0,0,0,0,0,0,0,0,
0,0,0,0,0,0,0,0,0,0,0,0,0,0,194,0,0,198,0,0,194,0,0,194,0,0,198,0,0,0,0,0,0,0,0,0,0,0,0,0,
0,0,0,0,0,0,0,0,0,0,0,0,0,0,194,0,0,198,0,0,194,0,0,194,0,0,198,0,0,0,0,0,0,0,0,0,0,0,0,0,
0,0,0,0,0,0,0,0,0,0,0,0,0,0,194,0,0,198,0,0,194,0,0,194,0,0,198,0,0,0,0,0,0,0,0,0,0,0,0,0,
0,0,0,0,0,0,0,0,0,0,0,0,0,0,194,0,0,198,0,0,194,0,0,194,0,0,198,0,0,0,0,0,0,0,0,0,0,0,0,0,
0,0,0,0,0,0,0,0,0,0,0,0,0,0,194,0,0,198,0,0,194,0,0,194,0,0,198,0,0,0,0,0,0,0,0,0,0,0,0,0,
0,0,0,0,0,0,0,0,0,0,0,0,0,0,194,0,0,198,0,0,194,0,0,194,0,0,198,0,0,0,0,0,0,0,0,0,0,0,0,0,
0,0,0,0,0,0,0,0,0,0,0,0,0,0,194,0,0,198,0,0,194,0,0,194,0,0,198,0,0,0,0,0,0,0,0,0,0,0,0,0,
0,0,0,0,0,0,0,0,0,0,0,0,0,0,194,0,0,198,0,0,194,0,0,194,0,0,198,0,0,0,0,0,0,0,0,0,0,0,0,0,
0,0,0,0,0,0,0,0,0,0,0,0,0,0,194,0,0,198,0,0,194,0,0,194,0,0,198,0,0,0,0,0,0,0,0,0,0,0,0,0,
0,0,0,0,0,0,0,0,0,0,0,0,0,0,194,0,0,198,0,0,194,0,0,194,0,0,198,0,0,0,0,0,0,0,0,0,0,0,0,0,
0,0,0,0,0,0,0,0,0,0,0,0,0,0,194,0,0,198,0,0,194,0,0,194,0,0,198,0,0,0,0,0,0,0,0,0,0,0,0,0,
0,0,0,0,0,0,0,0,0,0,0,0,0,0,194,0,56,60,59,0,194,0,0,194,0,0,198,0,0,0,0,0,0,0,0,0,0,0,0,0,
0,0,0,0,0,0,0,0,0,0,0,0,0,0,194,0,57,55,61,0,194,0,0,194,0,0,198,0,0,0,0,0,0,0,0,0,0,0,0,0,
0,0,0,0,0,0,0,0,0,0,0,0,0,0,194,0,58,62,63,0,194,0,0,197,0,0,198,0,0,0,0,0,0,0,0,0,0,0,0,0,
0,0,0,0,0,0,0,0,0,0,0,0,0,0,197,0,0,0,0,0,197,0,0,0,0,0,197,0,0,0,0,0,0,0,0,0,0,0,0,0,
0,0,0,0,0,0,0,0,0,0,0,0,0,0,0,0,0,0,0,0,0,0,0,0,0,0,0,0,0,0,0,0,0,0,0,0,0,0,0,0,
0,0,0,0,0,0,0,0,0,0,0,0,0,0,0,0,0,0,0,0,0,0,0,0,0,0,0,0,0,0,0,0,0,0,0,0,0,0,0,0,
0,0,0,0,0,0,0,0,0,0,0,0,0,0,0,0,0,0,0,0,0,0,0,0,0,0,0,0,0,0,0,0,0,0,0,0,0,0,0,0,
0,0,0,0,0,0,0,0,0,0,0,0,0,0,0,0,0,0,0,0,0,0,0,0,0,0,0,0,0,0,0,0,0,0,0,0,0,0,0,0,
0,0,0,0,0,0,0,0,0,0,0,0,0,0,0,0,0,0,0,0,0,0,0,0,0,0,0,0,0,0,0,0,0,0,0,0,0,0,0,0,
0,0,0,0,0,0,0,0,0,0,0,0,0,0,0,0,0,0,0,0,0,0,0,0,0,0,0,0,0,0,0,0,0,0,0,0,0,0,0,0,
0,0,0,0,0,0,0,0,0,0,0,0,0,0,0,0,0,0,0,0,0,0,0,0,0,0,0,0,0,0,0,0,0,0,0,0,0,0,0,0,
0,0,0,0,0,0,0,0,0,0,0,0,0,0,0,0,0,0,0,0,0,0,0,0,0,0,0,0,0,0,0,0,0,0,0,0,0,0,0,0
</data>
 </layer>
 <objectgroup id="8" name="Object Layer 4" offsetx="0" offsety="-48"/>
</map>
